outputs/icons/general/repeat_round.svg

<svg xmlns="http://www.w3.org/2000/svg" width="1200" height="1200" fill="none"><path fill="#000" d="M350 350h500v119.822c0 11.137 13.465 16.714 21.34 8.839l169.82-169.822c4.885-4.881 4.885-12.797 0-17.678L871.34 121.339c-7.875-7.875-21.34-2.298-21.34 8.838V250H300c-27.614 0-50 22.386-50 50v200c0 27.615 22.386 50 50 50s50-22.385 50-50zm500 500H350V730.18c0-11.14-13.464-16.715-21.339-8.84L158.839 891.16c-4.882 4.885-4.882 12.795 0 17.68l169.822 169.82c7.875 7.875 21.339 2.3 21.339-8.84V950h550c27.615 0 50-22.385 50-50V700c0-27.615-22.385-50-50-50s-50 22.385-50 50z"/></svg>

<svg width="1200" height="1200" viewBox="0 0 1200 1200" fill="none" xmlns="http://www.w3.org/2000/svg"><path d="M350 350H850V469.822C850 480.959 863.465 486.536 871.34 478.661L1041.16 308.839C1046.045 303.958 1046.045 296.042 1041.16 291.161L871.34 121.339C863.465 113.464 850 119.041 850 130.177V250H300C272.386 250 250 272.386 250 300V500C250 527.615 272.386 550 300 550C327.614 550 350 527.615 350 500V350ZM850 850H350V730.18C350 719.04 336.536 713.465 328.661 721.34L158.839 891.16C153.957 896.045 153.957 903.955 158.839 908.84L328.661 1078.66C336.536 1086.535 350 1080.96 350 1069.82V950H900C927.615 950 950 927.615 950 900V700C950 672.385 927.615 650 900 650C872.385 650 850 672.385 850 700V850Z" fill="#1D1E23"/></svg>
